X: 1
T: Jackson's Fancy
M: 6/8
L: 1/8
R: jig
K: Dmaj
|:DFA def|edc dAF|DFA dAF|GEE E2F|
DFA def|edc dAF|DFA deg|fdc d3:|
|:fed faf|gbg faf|fed faf|gee eag|
fed faf|gbg faf|fed eag|fdd d3:||
